X:477
T:Waltz For Dewayne Pomeroy
C:Written by Chris Thile Tab by Joshua Johnson
N:
R:bluegrass
L:1/8
Q:1/4=119
M:3/4
K:Bb
[e2G2C2] Cg fe | [d2G2E2] Gf ed | [c2F2B,2] B,F cF | [cFB,][dFB,] dB, dB, | [e2G2C2] Cg fe | 
[d2_G2C2] Cd/e/ dc | [B2D2] G,D cd | [d'd]d [c'd]d [bd]d | [_a2c2F2] ag ab | =bG d_a gf | 
eC [e2G2C2] eC | dF [d2F2B,2] d2 | [e2G2C2] Cg fe | [d2G2E2] Gf ed | [c2F2B,2] B,F cF | 
[cFB,][dFB,] dB, dB, | [e2G2C2] Cg fe | [d2_G2C2] Cd/e/ dc | [B2D2] G,D cd | [d'd]d [c'd]d [bd]d | 
[_a2c2F2] ag ab | =bG d_a gf | e2 CG e2 | e2 C_A e2 | [f_A_D][AD] [eAD][AD] [fAD][AD] | 
[_acF]F [fcF]F [a2c2F2] | [b3_d3_G3]b/c'/ b_a | [f_A_D]_g/f/ [e2A2D2] fg | [f_A_D][AD] [e2A2D2] [f2A2D2] | 
[_acF]F [f2c2F2] cF | [B2_G2] BG BG | FB fc d=e | f[AD] [=eAD][AD] f2 | a[cF] [g2c2F2] aF | 
[=b2=E2] bc [g2c2] | [=e2c2F2] cF ec | [g2A2D2] gA f2 | [d6G6=B,6] | fC [f2G2C2] e2 | 
cA, Fc dG, | [e2G2C2] Cg fe | [d2G2E2] Gf ed | [c2F2B,2] B,F cF | [cFB,][dFB,] dB, dB, | 
[e2G2C2] Cg fe | [d2_G2C2] Cd/e/ dc | [B2D2] G,D cd | [d'd]d [c'd]d [bd]d | [_a2c2F2] ag ab | 
=bG d_a gf | e2 _A,E e2 | d2 B,F d2 | [e_AC]C Ag fe | GC [GC]g fe | =B,_G e_g fe | 
A,_G e_d d/e/=e | _gD a_a zg | _G_d _g=e =d_d | [=BD]D G,[BD] d=e | _g=B, _AB, gA | 
[f_A_D][AD] [eAD][AD] [fAD][AD] | [_acF]F [fcF]F [a2c2F2] | [b3_d3_G3]b/c'/ b_a | 
[f_A_D]_g/f/ [e2A2D2] fg | [f_A_D][AD] [e2A2D2] [f2A2D2] | [_acF]F [f2c2F2] cF | 
[B2_G2] BG BG | FB fc d=e | f[AD] [=eAD][AD] f2 | a[cF] [g2c2F2] aF | [=b2=E2] bc [g2c2] | 
[=e2c2F2] cF ec | [g2A2D2] gA f2 | [d6G6=B,6] | fC [f2G2C2] e2 | [c4F4A,4] [d2G,2] | 
[e2G2C2] Cg fe | [d2G2E2] Gf ed | [c2F2B,2] B,F cF | [cFB,][dFB,] dB, dB, | [e2G2C2] Cg fe | 
[d2_G2C2] Cd/e/ dc | [B2D2] G,D cd | [d'd]d [c'd]d [bd]d | [_a2c2F2] ag ab | =bG d_a gf | 
eC [e2G2C2] eC | dF [d2F2B,2] d2 | 
M:9/4
[e2G2C2] Cg fe [d3G3E3]f ed [c6F6B,6] | z8 z8 z2 | 


